packages/ffe-icons/icons/filled/md/mobile_off.svg

<svg xmlns="http://www.w3.org/2000/svg" height="24" viewBox="0 -960 960 960" width="24"><path d="M805.847-59.846 55.231-810.463q-8.308-8.307-8.5-20.884-.192-12.577 8.5-21.269 8.692-8.692 21.076-8.692t21.076 8.692L848-101.999q8.307 8.307 8.5 20.884.192 12.576-8.5 21.269-8.692 8.692-21.076 8.692-12.385 0-21.077-8.692ZM220.001-687.23 280-627.231v397.232h390.539l69.46 69.459v28.231q0 29.923-21.193 51.115Q697.614-60 667.691-60H292.309q-29.923 0-51.115-21.193-21.193-21.192-21.193-51.115V-687.23ZM680-367.693v-362.308H343.305q-14.847 0-27.039-7.269-12.192-7.269-18.961-19.039l-55.997-69.229q-14.153-23.384 1.885-48.923 16.039-25.538 49.116-25.538h375.382q30.308 0 51.308 21t21 51.308v459.998q0 12.769-8.616 21.384-8.615 8.615-21.384 8.615t-21.384-8.615Q680-354.924 680-367.693Z"/></svg>

<svg xmlns="http://www.w3.org/2000/svg" height="24" viewBox="0 -960 960 960" width="24"><path d="M805.85-59.85 55.23-810.46q-8.31-8.31-8.5-20.89-.19-12.57 8.5-21.27 8.69-8.69 21.08-8.69 12.38 0 21.07 8.69L848-102q8.31 8.31 8.5 20.88.19 12.58-8.5 21.27-8.69 8.7-21.08 8.7-12.38 0-21.07-8.7ZM220-687.23l60 60V-230h390.54L740-160.54v28.23q0 29.92-21.19 51.12Q697.61-60 667.69-60H292.31q-29.92 0-51.12-21.19Q220-102.39 220-132.31v-554.92Zm460 319.54V-730H343.3q-14.84 0-27.03-7.27-12.2-7.27-18.96-19.04l-56-69.23q-14.16-23.38 1.88-48.92Q259.23-900 292.31-900h375.38Q698-900 719-879q21 21 21 51.31v460q0 12.77-8.62 21.38-8.61 8.62-21.38 8.62t-21.38-8.62q-8.62-8.61-8.62-21.38Z"/></svg>
